icons/fill-new-office-tool-filled-seal-s-check.svg

<svg xmlns="http://www.w3.org/2000/svg" width="32px" height="32px" viewBox="0 0 32 32" version="1.1">
    <title>fill-new-office-tool-filled-seal-s-check</title>
    <g id="fill-new-office-tool-filled-seal-s-check" stroke-width="1" fill-rule="evenodd">
        <path d="M16,2 C19.5898509,2 22.5,4.91014913 22.5,8.5 C22.5,11.0072927 21.0803787,13.1830151 19.0010736,14.2672297 L19,18 L24,18 C26.6887547,18 28.8818181,20.1223067 28.9953805,22.7831104 L29,23 L29,25 L3,25 L3,23 C3,20.2385763 5.23857625,18 8,18 L13,18 L12.9999221,14.2677488 C10.9200745,13.1837097 9.5,11.0076929 9.5,8.5 C9.5,4.91014913 12.4101491,2 16,2 Z M3,27 L29,27 L29,28 C29,28.5522847 28.5522847,29 28,29 L4,29 C3.44771525,29 3,28.5522847 3,28 L3,27 Z" id="&#24418;&#29366;" />
    </g>
</svg>

<svg xmlns="http://www.w3.org/2000/svg" viewBox="0 0 32 32"><path fill="currentColor" d="M16 2a6.5 6.5 0 0 1 3.001 12.267L19 18h5a5 5 0 0 1 4.995 4.783L29 23v2H3v-2a5 5 0 0 1 5-5h5v-3.732A6.5 6.5 0 0 1 16 2M3 27h26v1a1 1 0 0 1-1 1H4a1 1 0 0 1-1-1z"/></svg>
